X: 54
T: String of Trucks
C: by Jim Kimball
%D:1986
B: PC2 p.196
S: Fiddle Hell Online 2021-10-13
Z: 2022 John Chambers <jc:trillian.mit.edu>
M: C|
L: 1/8
K: Em
%%continueall
"^A"|:\
"Em"B,2E2 EFGE | "D"FGFE DEFD | "Em"B,2E2 EFGE | "D"FED2 [1,3 B,2A,2 :|[2,4 "Em"E4 "^B":: "G"B4 B4 | "D"ABAG FED2 |
"Em"B,2E2 EFGE | "D"FED2 B,2A,2 || "D7"A4 "G"B4 | "D"ABAG FED2 | "Em"B,2E2 EFGE | "D"FED2 "Em"E4 :|


